!!!COM: Palestrina, Giovanni Perluigi da
!!!OPR: Ad coenam Agni
!!!OTL: Credo
**kern	**kern	**kern	**kern	**kern
*Ibass	*Itenor	*Icalto	*Icalto	*Icant
!Bassus	!Tenor	!Altus 2	!Altus 1	!Cantus
*clefF4	*clefGv2	*clefG2	*clefG2	*clefG2
*k[]	*k[]	*k[]	*k[]	*k[]
*G:mix	*G:mix	*G:mix	*G:mix	*G:mix
*M4/2	*M4/2	*M4/2	*M4/2	*M4/2
=1	=1	=1	=1	=1
0r	0d	0r	0r	0r
=2	=2	=2	=2	=2
1r	1e	0r	0r	0r
[1G	1d	.	.	.
=3	=3	=3	=3	=3
1G]	1e	0r	0r	0r
1A	1f#	.	.	.
=4	=4	=4	=4	=4
1G	2.g	0r	0r	0r
.	4f	.	.	.
1A	2e	.	.	.
.	4d	.	.	.
.	4c	.	.	.
=5	=5	=5	=5	=5
2B	2d	0r	0r	1r
1c	1e	.	.	.
.	.	.	.	[1g
4B	4d	.	.	.
4A	4c	.	.	.
=6	=6	=6	=6	=6
1G	4B	0d	0r	1g]
.	4G	.	.	.
.	1g	.	.	.
1D	.	.	.	1a
.	2f#	.	.	.
=7	=7	=7	=7	=7
1r	2g	2e	0r	1g
.	2G	2d	.	.
2r	2c	2e	.	1a
2D	[2d	2f#	.	.
=8	=8	=8	=8	=8
2G	2d]	1g	1r	1b
2E	2.e	.	.	.
[1A	.	2e	[1c	1cc
.	4c	.	.	.
.	[2e	2c	.	.
=9	=9	=9	=9	=9
1A]	2e]	2e	1c]	1a
.	4d	2f#	.	.
.	4c	.	.	.
1G	2B	1g	1d	1b
.	2G	.	.	.
=10	=10	=10	=10	=10
2r	1A	2.e	1c	1a
1c	.	.	.	.
.	.	4f	.	.
.	1G	2g	1d	2dd
2B	.	2g	.	2dd
=11	=11	=11	=11	=11
1A	0r	1a	1e	2cc
.	.	.	.	2cc
[1D	.	1a	1f	2dd
.	.	.	.	[2ff
=12	=12	=12	=12	=12
1D]	1r	[0a	1d	4ff]
.	.	.	.	4ee
.	.	.	.	1dd
2.A	2r	.	1e	.
.	[2A	.	.	2cc#
4G	.	.	.	.
=13	=13	=13	=13	=13
2F	2A]	1a]	1d	1dd
2D	1d	.	.	.
1E	.	1r	2g	1r
.	2c#	.	2g	.
=14	=14	=14	=14	=14
1D	1d	1a	2f	0r
.	.	.	2f	.
[1G	2d	2.b-	2g	.
.	2G	.	[2b-	.
.	.	4a	.	.
=15	=15	=15	=15	=15
1G]	0d	2g	4b-]	1r
.	.	.	4a	.
.	.	2b-	1g	.
1D	.	2a	.	1a
.	.	[2d	2f#	.
=16	=16	=16	=16	=16
1r	1G	2d]	1g	1b
.	.	1e	.	.
1A	1r	.	1r	2cc
.	.	[2f	.	2a
=17	=17	=17	=17	=17
2B	2r	2f]	0r	1g
1c	1e	2e	.	.
.	.	1c	.	2a
2A	2f#	.	.	2cc
=18	=18	=18	=18	=18
1G	2g	1.d	1r	2.b
.	2g	.	.	.
.	.	.	.	4cc
2D	2f	.	1d	1dd
2D	[2d	2f	.	.
=19	=19	=19	=19	=19
1A	2d]	2e	1e	1r
.	2c#	1a	.	.
1r	2d	.	2f	1dd
.	2B	2b	2d	.
=20	=20	=20	=20	=20
1A	1A	2cc	1c	1ee
.	.	2a	.	.
1D	1r	2.a	2d	2ff
.	.	.	2f	2dd
.	.	4g	.	.
=21	=21	=21	=21	=21
2A	2r	4a	2.e	2.cc
.	.	4b	.	.
2A	2A	2cc	.	.
.	.	.	4f	4dd
2.E	2B	2b	1g	4ee
.	.	.	.	4ff
.	[2c	2g	.	[2ee
4F	.	.	.	.
=22	=22	=22	=22	=22
1G	2c]	1g	1r	4ee]
.	.	.	.	4dd
.	2B	.	.	1dd
1r	2e	2r	1g	.
.	2e	[2g	.	2cc#
=23	=23	=23	=23	=23
1r	1d	2g]	1a	[0dd
.	.	2f#	.	.
1G	1r	2g	2b-	.
.	.	2b-	2g	.
=24	=24	=24	=24	=24
1D	1d	2.a	2.f	1dd]
.	.	4g	4g	.
[1F	2A	[1f	4a	1r
.	.	.	4b-	.
.	2c	.	[2a	.
=25	=25	=25	=25	=25
2F]	2d	2f]	4a]	0r
.	.	.	4g	.
2G	2.e	4e	1g	.
.	.	4d	.	.
2A	.	2c	.	.
.	4d	.	.	.
2A	[2c	2c	2f#	.
=26	=26	=26	=26	=26
1G	2c]	1d	[0g	1dd
.	2B	.	.	.
2r	4c	1c	.	1ee
.	4d	.	.	.
[2c	4e	.	.	.
.	4c	.	.	.
=27	=27	=27	=27	=27
2c]	1d	2G	1g]	2.gg
2B	.	2.g	.	.
.	.	.	.	4ff
2.c	2r	.	1r	2.ee
.	.	4f	.	.
.	[2g	[2e	.	.
4B	.	.	.	4dd
=28	=28	=28	=28	=28
1A	2g]	2e]	0r	1cc
.	2f#	4d	.	.
.	.	4c	.	.
1G	2.g	1d	.	1b
.	4f	.	.	.
=29	=29	=29	=29	=29
1C	4e	0c	1g	0r
.	4d	.	.	.
.	4c	.	.	.
.	4B	.	.	.
2r	2.A	.	1a	.
[2F	.	.	.	.
.	4G	.	.	.
=30	=30	=30	=30	=30
2F]	2F	0c	2.cc	2r
2E	2G	.	.	2.cc
.	.	.	4b	.
2.F	2A	.	2.a	.
.	.	.	.	4cc
.	[2c	.	.	2cc
4E	.	.	4g	.
=31	=31	=31	=31	=31
1D	2c]	1r	1f	1dd
.	2B	.	.	.
2C	1c	2r	1e	1ee
[2c	.	[2g	.	.
=32	=32	=32	=32	=32
4c]	1r	4g]	0r	1.ee
4c	.	4g	.	.
2c	.	2g	.	.
2.A	2r	1a	.	.
.	[2c	.	.	2ee
4G	.	.	.	.
=33	=33	=33	=33	=33
2.F	4c]	2a	2r	1ff
.	4c	.	.	.
.	2c	1a	2.f	.
4E	.	.	.	.
1D	1d	.	.	1ff
.	.	.	4f	.
.	.	2b	2f	.
=34	=34	=34	=34	=34
1C	1e	2.cc	1g	1ee
.	.	4b	.	.
1F	2c	4a	1a	1r
.	.	4g	.	.
.	2c	[2f	.	.
=35	=35	=35	=35	=35
1D	2f	4f]	1.a	0r
.	.	4e	.	.
.	2f	1d	.	.
2A	2.e	.	.	.
2A	.	2c#	2a	.
.	4f#	.	.	.
=36	=36	=36	=36	=36
2G	1g	2d	1b-	1r
1G	.	1g	.	.
.	2r	.	1b-	[1dd
2G	[2d	2g	.	.
=37	=37	=37	=37	=37
2D	2d]	2f	1a	2dd]
2D	2d	2f	.	2dd
1F	2A	1a	1r	2cc
.	2A	.	.	2cc
=38	=38	=38	=38	=38
2C	1c	1g	0r	1ee
1c	.	.	.	.
.	2G	2.g	.	1dd
2B	[2g	.	.	.
.	.	4f	.	.
=39	=39	=39	=39	=39
2c	2g]	2e	1r	2r
2A	2f#	2c	.	1cc
1G	2g	2d	[1g	.
.	2d	2d	.	2b
=40	=40	=40	=40	=40
1C	1e	2c	2g]	2cc
.	.	2.cc	2g	2cc
[1F	2.c	.	2f	2.a
.	.	4b	.	.
.	.	4a	2f	.
.	4B	4g	.	4b
=41	=41	=41	=41	=41
2F]	4A	2.f	1a	1cc
.	4G	.	.	.
2F	2A	.	.	.
.	.	4e	.	.
1G	2B	4d	1g	2b
.	.	4c	.	.
.	2G	[2d	.	2b
=42	=42	=42	=42	=42
2.D	2A	2d]	2r	0a
.	1d	2d	1f	.
4E	.	.	.	.
4F	.	1A	.	.
4G	.	.	.	.
2A	2c#	.	2e	.
=43	=43	=43	=43	=43
2.D	2d	2.a	2f	0r
.	2d	.	2f	.
4E	.	4g	.	.
2F	2A	2a	2.d	.
2G	[2d	[2b-	.	.
.	.	.	4e	.
=44	=44	=44	=44	=44
2D	4d]	4b-]	1f	0r
.	4c	4a	.	.
2F	4A	1a	.	.
.	4B	.	.	.
2C	2.c	.	2e	.
2C	.	[2g	2e	.
.	4B	.	.	.
=45	=45	=45	=45	=45
1D	2A	2g]	0d	1a
.	2A	2f#	.	.
1r	2G	2g	.	2b
.	[2G	2d	.	2b
=46	=46	=46	=46	=46
1C	2G]	2e	0r	1cc
.	2c	2e	.	.
2F	2c	1f	.	1a
2F	[2d	.	.	.
=47	=47	=47	=47	=47
1G	2d]	2d	0r	1g
.	4c	2e	.	.
.	4B	.	.	.
1F	1A	2f	.	2a
.	.	2c	.	2cc
=48	=48	=48	=48	=48
2r	1G	1.g	1d	4b
.	.	.	.	4cc
2G	.	.	.	4dd
.	.	.	.	4b
2C	2r	.	2e	2cc
2C	2G	2g	2e	2cc
=49	=49	=49	=49	=49
2F	2A	1c	1f	1a
2F	1c	.	.	.
1G	.	2r	1d	1dd
.	2B	2g	.	.
=50	=50	=50	=50	=50
2C	1c	2e	1c	1ee
2E	.	2.c	.	.
1D	1F	.	2d	2ff
.	.	8B	.	.
.	.	8A	.	.
.	.	2B	2f	2dd
=51	=51	=51	=51	=51
1C	1G	2.c	4e	1ee
.	.	.	4f	.
.	.	.	4g	.
.	.	4B	4e	.
1D	2r	4A	2f	2.dd
.	.	4G	.	.
.	[2d	2A	2f	.
.	.	.	.	4cc
=52	=52	=52	=52	=52
2G	2d]	4B	1d	2b
.	.	4c	.	.
2F	2A	2d	.	1a
1E	2B	1G	1g	.
.	2G	.	.	[2g
=53	=53	=53	=53	=53
1D	1d	2r	1a	2g]
.	.	1d	.	2f#
1G	1r	.	2b-	1g
.	.	2e	2g	.
=54	=54	=54	=54	=54
2D	2r	2f	1a	0r
2F	2A	2d	.	.
2.E	2B	2e	2.g	.
.	2G	[2g	.	.
4D	.	.	4f	.
=55	=55	=55	=55	=55
2C	1A	2g]	2e	0r
2D	.	2f	1d	.
2E	1G	1e	.	.
2C	.	.	[2c	.
=56	=56	=56	=56	=56
1G	1r	1d	2c]	2r
.	.	.	2B	1g
1C	2r	2.e	1c	.
.	[2c	.	.	2g
.	.	4d	.	.
=57	=57	=57	=57	=57
0r	2c]	2c	0r	2a
.	2d	2B	.	2b
.	2e	1A	.	1cc
.	2f#	.	.	.
=58	=58	=58	=58	=58
1.G	0g	2r	0r	0b
.	.	2d	.	.
.	.	2d	.	.
2G	.	[2e	.	.
=59	=59	=59	=59	=59
2.A	1c	2e]	2r	1r
.	.	2f	1c	.
4B	.	.	.	.
2c	1r	2.e	.	[1g
2C	.	.	2c	.
.	.	8d	.	.
.	.	8c	.	.
=60	=60	=60	=60	=60
2.G	0r	2B	2d	2g]
.	.	2G	2e	2g
8F	.	.	.	.
8E	.	.	.	.
1D	.	1d	1f	2a
.	.	.	.	2b
=61	=61	=61	=61	=61
0C	2r	2G	0e	1cc
.	1c	2g	.	.
.	.	2g	.	1cc
.	2c	[2a	.	.
=62	=62	=62	=62	=62
1r	2d	2a]	1r	1b
.	2e	2g	.	.
2.F	1f	[1a	[1c	2.a
4G	.	.	.	4b
=63	=63	=63	=63	=63
2A	1e	1a]	2c]	4cc
.	.	.	.	4dd
2A	.	.	2c	2ee
2D	2d	1a	2d	2ff
2A	2c#	.	2e	2ee
=64	=64	=64	=64	=64
1D	0d	0a	1f	2.dd
.	.	.	.	8cc
.	.	.	.	8b
1D	.	.	1f	2a
.	.	.	.	[2dd
=65	=65	=65	=65	=65
1A	0r	1a	1e	2dd]
.	.	.	.	2cc#
[1D	.	2r	2.d	[1dd
.	.	2a	.	.
.	.	.	4e	.
=66	=66	=66	=66	=66
1D]	2r	2a	4f	0dd]
.	.	.	4g	.
.	2A	2.f	2a	.
1D	2d	.	2b-	.
.	.	4f	.	.
.	[2d	2f	2a	.
=67	=67	=67	=67	=67
2G	4d]	1d	2.g	0r
.	4d	.	.	.
2.G	1B	.	.	.
.	.	.	8f	.
.	.	.	8e	.
.	.	1g	2d	.
4G	.	.	.	.
2E	[2e	.	[2g	.
=68	=68	=68	=68	=68
1A	4e]	1c	2g]	1r
.	4d	.	.	.
.	1c	.	2f#	.
1G	.	1d	[1g	1dd
.	2B	.	.	.
=69	=69	=69	=69	=69
0C	2c	1c	0g]	1.ee
.	2G	.	.	.
.	2c	2r	.	.
.	2c	2c	.	2ee
=70	=70	=70	=70	=70
0r	2B	2g	0r	2dd
.	2.c	2g	.	2.ee
.	.	2e	.	.
.	4B	.	.	4dd
.	4A	[2f	.	4cc
.	4G	.	.	4b
=71	=71	=71	=71	=71
0r	2A	4f]	1r	2cc
.	.	4e	.	.
.	2A	4d	.	2cc
.	.	4c	.	.
.	1G	[1d	1g	2.b
.	.	.	.	4cc
=72	=72	=72	=72	=72
1D	0r	2d]	1.a	1dd
.	.	2d	.	.
2F	.	2.c	.	1r
2F	.	.	2a	.
.	.	4d	.	.
=73	=73	=73	=73	=73
2E	0r	4e	2g	0r
.	.	4d	.	.
2.F	.	4c	2.a	.
.	.	4B	.	.
.	.	4A	.	.
4E	.	4B	4g	.
4D	.	[2c	4f	.
4C	.	.	4e	.
=74	=74	=74	=74	=74
2D	2r	2c]	2f	1dd
2D	2d	2B	2f	.
[1C	2g	2c	2.e	2ee
.	2g	2c	.	2ee
.	.	.	4f	.
=75	=75	=75	=75	=75
1C]	1c	2e	1g	1ee
.	.	2e	.	.
1r	2B	1g	1r	2dd
.	2c	.	.	2ee
=76	=76	=76	=76	=76
0r	4c	2e	0r	4ee
.	4B	.	.	4dd
.	4A	2f	.	4cc
.	4G	.	.	4b
.	1A	4f	.	1cc
.	.	4e	.	.
.	.	4d	.	.
.	.	4c	.	.
=77	=77	=77	=77	=77
2r	1G	0d	1g	1b
2G	.	.	.	.
2D	2r	.	2a	1r
2D	2d	.	2a	.
=78	=78	=78	=78	=78
1F	2A	2.c	1a	0r
.	2A	.	.	.
.	.	4d	.	.
2E	1c	2e	2g	.
2F	.	[2A	2a	.
=79	=79	=79	=79	=79
4F	2A	4A]	4a	1r
4E	.	4B	4g	.
4D	2A	1c	4f	.
4C	.	.	4e	.
1D	1F	.	1f	1dd
.	.	2B	.	.
=80	=80	=80	=80	=80
1C	2G	1c	1e	2.gg
.	2G	.	.	.
.	.	.	.	4ff
1r	2.g	2r	1r	2ee
.	.	2G	.	2dd
.	4f	.	.	.
=81	=81	=81	=81	=81
1r	2e	2.g	0r	2cc
.	2d	.	.	2b
.	.	4f	.	.
2r	2c	2e	.	2a
2G	2B	2d	.	[2g
=82	=82	=82	=82	=82
1.c	1A	2e	1r	2g]
.	.	2c	.	2f#
.	2G	1d	1g	1g
2B	2d	.	.	.
=83	=83	=83	=83	=83
2.A	1e	2c	2.cc	0r
.	.	2c	.	.
4G	.	.	4b	.
2F	2f	2.cc	2a	.
2E	2g	.	2g	.
.	.	4b	.	.
=84	=84	=84	=84	=84
0F	1c	2a	2f	0r
.	.	2g	2e	.
.	2r	2f	2d	.
.	2c	2e	[2c	.
=85	=85	=85	=85	=85
1G	2.g	1d	2c]	1dd
.	.	.	2B	.
.	4f	.	.	.
[1C	2.e	2c	[1c	2.gg
.	.	2g	.	.
.	4d	.	.	4ff
=86	=86	=86	=86	=86
1C]	2c	2.cc	0c]	2ee
.	2G	.	.	2dd
.	.	4b	.	.
[1F	[1A	2a	.	2cc
.	.	2g	.	2b
=87	=87	=87	=87	=87
1F]	2A]	1f	[0c	1a
.	2B	.	.	.
[1C	1c	[1e	.	[1g
=88	=88	=88	=88	=88
0C]	0G	0e]	0c]	0g]
=89	=89	=89	=89	=89
0C	0c	0e	0r	0g
=90	=90	=90	=90	=90
1F	1c	1f	1r	1a
1C	1c	1e	[1c	1g
=91	=91	=91	=91	=91
2F	2A	1f	1c]	1a
2A	2c	.	.	.
2.G	2B	[1g	1d	1b
.	2d	.	.	.
4F	.	.	.	.
=92	=92	=92	=92	=92
2E	2G	2g]	1c	1cc
2F	1c	1a	.	.
1D	.	.	1d	1r
.	2B	4g	.	.
.	.	4f	.	.
=93	=93	=93	=93	=93
1C	2c	2a	1e	1r
.	1c	2g	.	.
1F	.	2r	1f	1a
.	[2d	2a	.	.
=94	=94	=94	=94	=94
1G	2d]	1g	0r	1b
.	1e	.	.	.
1A	.	1e	.	1cc
.	[2A	.	.	.
=95	=95	=95	=95	=95
2D	2A]	1f	1d	1a
2F	2.d	.	.	.
1E	.	2g	1e	1g
.	4c	.	.	.
.	4c	2G	.	.
.	4B	.	.	.
=96	=96	=96	=96	=96
1D	1.d	2r	1f	1.a
.	.	4d	.	.
.	.	4e	.	.
1r	.	4f	1d	.
.	.	4d	.	.
.	4c	[2g	.	2b
.	4B	.	.	.
=97	=97	=97	=97	=97
1r	1A	2g]	1c	1cc
.	.	2f#	.	.
2r	1G	[1g	[1d	[1b
[2G	.	.	.	.
=98	=98	=98	=98	=98
2G]	1B	1g]	2d]	1b]
2G	.	.	2e	.
2.F	2c	1a	1f	1r
.	[2d	.	.	.
4G	.	.	.	.
=99	=99	=99	=99	=99
1A	4d]	2r	0e	1a
.	4c	.	.	.
.	2c	1a	.	.
1E	2B	.	.	1b
.	[2e	2g#	.	.
=100	=100	=100	=100	=100
2.A	4e]	1a	1r	1cc
.	4d	.	.	.
.	4c	.	.	.
4G	4B	.	.	.
2F	2A	2a	1d	2dd
2G	2d	[2g	.	2b
=101	=101	=101	=101	=101
1C	2.c	4g]	1e	1cc
.	.	4f	.	.
.	.	4e	.	.
.	4B	4d	.	.
1r	2A	2c	1f	1cc
.	2A	2c	.	.
=102	=102	=102	=102	=102
1r	1G	2d	2g	1b
.	.	2g	2e	.
[1D	2r	1a	1f	1r
.	[2A	.	.	.
=103	=103	=103	=103	=103
1D]	2A]	1a	1f	1r
.	1d	.	.	.
1A	.	2r	1e	1a
.	2c	[2a	.	.
=104	=104	=104	=104	=104
1E	2B	2a]	0r	1b
.	1e	1g	.	.
1A	.	.	.	1cc
.	4d	2f#	.	.
.	4c	.	.	.
=105	=105	=105	=105	=105
2.G	4d	2g	1d	1.b
.	4c	.	.	.
.	4B	2.g	.	.
4F#	4A	.	.	.
2G	2B	.	1e	.
.	.	4f	.	.
2A	2c	2e	.	4a
.	.	.	.	4g
=106	=106	=106	=106	=106
1D	2A	1d	1f	2a
.	1d	.	.	2a
2.E	.	1G	[1e	1g
.	[2c	.	.	.
4F	.	.	.	.
=107	=107	=107	=107	=107
0G	2c]	0g	2e]	1r
.	4B	.	4d	.
.	4A	.	4c	.
.	1B	.	2d	1dd
.	.	.	2d	.
=108	=108	=108	=108	=108
2.c	2.c	1g	[0c	1ee
4B	4d	.	.	.
2.A	1e	2a	.	1cc
.	.	[2cc	.	.
4G	.	.	.	.
=109	=109	=109	=109	=109
1F	0f	4cc]	1c_	2.a
.	.	4b	.	.
.	.	4a	.	.
.	.	4g	.	4b
1F	.	2a	1c_	2cc
.	.	2a	.	2dd
=110	=110	=110	=110	=110
[0C	[0e	[0g	0c]	[0ee
=111	=111	=111	=111	=111
0C]	0e]	0g]	0c	0ee]
*	*	*	*	*-
!! Crucifixus
*Ibass	*Itenor	*Icalto	*Icant
!Bassus	!Tenor	!Altus	!Cantus
*clefF4	*clefGv2	*clefG2	*clefG2
*k[]	*k[]	*k[]	*k[]
*G:mix	*G:mix	*G:mix	*G:mix
*M4/2	*M4/2	*M4/2	*M4/2
=112	=112	=112	=112
0r	0r	0r	1.g
.	.	.	2g
=113	=113	=113	=113
0r	1r	0r	1a
.	[1c	.	1g
=114	=114	=114	=114
0r	2c]	0r	1.a
.	2c	.	.
.	1d	.	.
.	.	.	2b
=115	=115	=115	=115
1r	1c	0r	2cc
.	.	.	1cc
[1G	[1d	.	.
.	.	.	4b
.	.	.	4a
=116	=116	=116	=116
2G]	2d]	0r	1b
2G	2e	.	.
1A	2f	.	4a
.	.	.	4b
.	2e	.	4cc
.	.	.	4a
=117	=117	=117	=117
1G	2.g	0r	4b
.	.	.	4cc
.	.	.	2dd
.	4f	.	.
[1A	4e	.	2cc
.	4d	.	.
.	2c	.	[2ee
=118	=118	=118	=118
2A]	1f	1r	2ee]
2B	.	.	2dd
1c	[1e	2r	2.ee
.	.	[2c	.
.	.	.	4dd
=119	=119	=119	=119
1A	1e]	2c]	4cc
.	.	.	4b
.	.	2c	1a
1B	2r	1d	.
.	2d	.	2g#
=120	=120	=120	=120
1A	2e	1c	1a
.	2e	.	.
1r	2.f	[1d	2r
.	.	.	2a
.	4e	.	.
=121	=121	=121	=121
0r	2d	2d]	2b
.	2c	2e	2cc
.	2d	2f	2a
.	2B	2d	2g
=122	=122	=122	=122
2r	1A	1e	1a
2A	.	.	.
2B	1r	2d	1g
2c	.	2e	.
=123	=123	=123	=123
2A	0r	2f#	2a
2G	.	2g	2b
1A	.	2e	1cc
.	.	2f#	.
=124	=124	=124	=124
1G	2r	2.g	1b
.	2d	.	.
.	.	4f#	.
1r	2e	2g	1cc
.	2f	[2a	.
=125	=125	=125	=125
0r	2d	4a]	2dd
.	.	4b	.
.	2c	1cc	2ee
.	1d	.	2ff
.	.	2b	2dd
=126	=126	=126	=126
2r	1c	1cc	1ee
1c	.	.	.
.	2.g	2r	1dd
2B	.	[2g	.
.	4f	.	.
=127	=127	=127	=127
2.c	4e	2g]	0r
.	4d	.	.
.	1c	2e	.
4B	.	.	.
2A	.	2f	.
2G	2B	2e	.
=128	=128	=128	=128
2F	2A	2.d	0r
2.G	2B-	.	.
.	.	4c	.
.	1G	4B	.
4F	.	4A	.
4E	.	[2d	.
4D	.	.	.
=129	=129	=129	=129
1E	2r	2d]	1r
.	1g	2c#	.
1D	.	1d	2r
.	2f#	.	[2dd
=130	=130	=130	=130
0r	2.g	1r	2dd]
.	.	.	2b
.	4f	.	.
.	2.e	2r	2cc
.	.	2g	2b
.	4d	.	.
=131	=131	=131	=131
0r	2c	2e	2.a
.	2.d	1f	.
.	.	.	4g
.	.	.	4f
.	4c	.	4e
.	2A	2e	[2a
=132	=132	=132	=132
1r	2B	2d	4a]
.	.	.	4g
.	2c	2e	1g
2r	1A	1c	.
[2c	.	.	2f#
=133	=133	=133	=133
2c]	1G	2r	1g
2B	.	2d	.
2c	1r	2e	2r
2A	.	2f	2a
=134	=134	=134	=134
2G	0r	2g	2b
2A	.	2e	2cc
4D	.	2f	2dd
4E	.	.	.
4F	.	2f	2a
4G	.	.	.
=135	=135	=135	=135
1A	1r	4e	2cc
.	.	4d	.
.	.	4e	2cc
.	.	4f	.
1G	2r	[1g	4b
.	.	.	4cc
.	2d	.	4dd
.	.	.	4b
=136	=136	=136	=136
0r	2e	2g]	2.cc
.	2f	2a	.
.	.	.	4dd
.	2g	2b	1ee
.	2e	[2cc	.
=137	=137	=137	=137
0r	2f	4cc]	1a
.	.	4b	.
.	2f	1a	.
.	2e	.	1b
.	2e	2g#	.
=138	=138	=138	=138
0A	2.d	1a	2a
.	.	.	2a
.	4e	.	.
.	1f	2r	2.cc
.	.	2A	.
.	.	.	4dd
=139	=139	=139	=139
1A	2r	2.c	2ee
.	2A	.	2ff
.	.	4d	.
[1A	2.c	2e	2ee
.	.	2f	4a
.	4d	.	4b
=140	=140	=140	=140
2A]	2e	2e	4cc
.	.	.	4a
2D	2f	1a	2.dd
1A	2e	.	.
.	.	.	4cc
.	2c	2f	[2cc
=141	=141	=141	=141
1G	1d	1g	2cc]
.	.	.	2b
[1C	[1c	1e	[1cc
=142	=142	=142	=142
1C]	1c]	2r	0cc]
.	.	1c	.
2r	2r	.	.
[2F	[2A	2c	.
=143	=143	=143	=143
2F]	2A]	1d	0r
2F	2A	.	.
1G	1B	[1e	.
=144	=144	=144	=144
1A	1c	2e]	0r
.	.	2f#	.
2B	2d	1g	.
[2c	[2e	.	.
=145	=145	=145	=145
2c]	2e]	2.a	1.cc
2.F	2.f	.	.
.	.	4g	.
.	.	4a	.
4G	4e	4b	.
2A	2c	[2cc	2cc
=146	=146	=146	=146
1G	1g	2cc]	1dd
.	.	2b	.
1c	1e	1cc	[1ee
=147	=147	=147	=147
1A	2r	2r	2ee]
.	2c	2cc	2ff#
1G	2d	2b	1gg
.	2e	2g	.
=148	=148	=148	=148
0r	2.f	2.a	1cc
.	4e	4g	.
.	2d	2f	2r
.	[2c	2e	2gg
=149	=149	=149	=149
1r	2c]	1d	2ff
.	2B	.	2dd
2r	1c	1c	2.ee
2c	.	.	.
.	.	.	4ee
=150	=150	=150	=150
2B	1G	2r	2dd
2G	.	2g	2b
2.A	1r	2e	2.cc
.	.	2c	.
4G	.	.	4b
=151	=151	=151	=151
2F	2r	4d	2a
.	.	4c	.
2E	2g	1c	2g
1D	2f	.	1cc
.	2d	2B	.
=152	=152	=152	=152
1C	2.e	2.c	1g
.	4d	4d	.
1r	2c	2e	2r
.	2B	2d	2g
=153	=153	=153	=153
0r	1A	2e	2.cc
.	.	2f#	.
.	.	.	4cc
.	2G	[1g	2b
.	[2c	.	2cc
=154	=154	=154	=154
1G	2c]	1g]	2dd
.	2B	.	2dd
2.c	1c	2r	2ee
.	.	2c	[2gg
4c	.	.	.
=155	=155	=155	=155
2B	0r	2.g	4gg]
.	.	.	4ff
2c	.	.	2ee
.	.	4g	.
2d	.	2f	2dd
[2c	.	2g	[2ee
=156	=156	=156	=156
2c]	2r	4a	2ee]
.	.	4g	.
2B	2G	1g	2dd
1A	2.c	.	1cc
.	.	2f#	.
.	4c	.	.
=157	=157	=157	=157
2G	2B	1g	2r
2C	2c	.	2cc
2F	2d	1r	2a
2G	2d	.	2b
=158	=158	=158	=158
2C	2.e	1r	2cc
1c	.	.	1ee
.	4f	.	.
.	1g	2r	.
2G	.	2g	2dd
=159	=159	=159	=159
1A	1r	2e	1cc
.	.	2f#	.
1G	2r	1g	2b
.	2g	.	2dd
=160	=160	=160	=160
0r	2e	2c	2ee
.	2f#	2d	4dd
.	.	.	4cc
.	1g	2.e	2b
.	.	.	[2ee
.	.	4f#	.
=161	=161	=161	=161
0r	2c	2g	4ee]
.	.	.	4dd
.	2c	2.a	2.cc
.	1e	.	.
.	.	4g	4b
.	.	[2g	4b
.	.	.	8a
.	.	.	8g
=162	=162	=162	=162
1r	0d	2g]	1a
.	.	2f#	.
[1G	.	1g	1g
=163	=163	=163	=163
1G]	2r	1g	1b
.	1d	.	.
1F	.	1a	1cc
.	[2c	.	.
=164	=164	=164	=164
1D	2c]	1f	1dd
.	2B	.	.
[1C	[1c	2.e	[1ee
.	.	4f	.
=165	=165	=165	=165
2C]	2c]	2g	2ee]
2C	2c	2g	2ee
1G	1B	[1g	[1dd
=166	=166	=166	=166
2r	2r	1g]	0dd]
1G	1B	.	.
.	.	1r	.
2F#	2A	.	.
=167	=167	=167	=167
1G	2.B	2r	1r
.	.	1g	.
.	4c	.	.
2D	1d	.	1a
2D	.	2f#	.
=168	=168	=168	=168
2G	2d	1g	1b
2E	1g	.	.
1A	.	1c	1cc
.	2f#	.	.
=169	=169	=169	=169
1G	1g	2r	1b
.	.	1g	.
1r	1d	.	1a
.	.	2f#	.
=170	=170	=170	=170
2r	1G	1g	2b
1G	.	.	2b
.	2r	2d	1a
2F	[2c	2f	.
=171	=171	=171	=171
1G	2c]	2e	0g
.	2B	2d	.
2C	1c	1e	.
[2c	.	.	.
=172	=172	=172	=172
2c]	1G	1d	1dd
2B	.	.	.
1c	1r	1g	1ee
=173	=173	=173	=173
2F	2r	1a	1ff
2D	1d	.	.
2.A	.	2a	1ee
.	2c#	[2a	.
4G	.	.	.
=174	=174	=174	=174
2F	2d	2a]	1dd
2G	2B	4g	.
.	.	4f	.
1C	1c	4e	2ee
.	.	4f	.
.	.	[2g	2ee
=175	=175	=175	=175
0D	2B	2g]	0dd
.	2B	4f	.
.	.	4e	.
.	1A	1f#	.
=176	=176	=176	=176
[0G	[0G	[0g	[0b
=177	=177	=177	=177
0G]	0G]	0g]	0b]
*-	*-	*-	*-
!! Et in Spiritum
**kern	**kern	**kern	**kern	**kern
*Ibass	*Itenor	*Icalto	*Icalto	*Icant
!Bassus	!Tenor	!Altus 2	!Altus 1	!Cantus
*clefF4	*clefGv2	*clefG2	*clefG2	*clefG2
*k[]	*k[]	*k[]	*k[]	*k[]
*G:mix	*G:mix	*G:mix	*G:mix	*G:mix
*M4/2	*M4/2	*M4/2	*M4/2	*M4/2
=178	=178	=178	=178	=178
1.C	1.G	0r	0r	0r
2C	2G	.	.	.
=179	=179	=179	=179	=179
2F	2A	1.c	0r	0r
2F	2A	.	.	.
2E	2G	.	.	.
[2F	[2A	2c	.	.
=180	=180	=180	=180	=180
2F]	2A]	2d	0r	0r
2G	2B	2d	.	.
4A	4c	[1c	.	.
4G	4B	.	.	.
4F	4A	.	.	.
4G	4G	.	.	.
=181	=181	=181	=181	=181
4A	2F	1c]	0r	1r
4B	.	.	.	.
1c	2A	.	.	.
.	1G	1d	.	[1g
2B	.	.	.	.
=182	=182	=182	=182	=182
1c	2r	1e	0r	2g]
.	2c	.	.	2g
1F	2A	1f	.	2a
.	[2c	.	.	2a
=183	=183	=183	=183	=183
1G	2c]	1d	1r	0g
.	2B	.	.	.
1C	2.c	2e	[1c	.
.	.	[2g	.	.
.	4B	.	.	.
=184	=184	=184	=184	=184
1r	1A	2g]	2c]	1a
.	.	2f#	2c	.
2r	1G	2.g	2d	1b
2G	.	.	2d	.
.	.	4f	.	.
=185	=185	=185	=185	=185
1A	0r	4e	0c	1cc
.	.	4d	.	.
.	.	2e	.	.
2F	.	2f	.	1a
2A	.	2e	.	.
=186	=186	=186	=186	=186
1G	2r	1.g	1d	1b
.	1G	.	.	.
1C	.	.	1e	2r
.	2A	4f	.	[2cc
.	.	4e	.	.
=187	=187	=187	=187	=187
0r	2F	1a	1f	2cc]
.	2F	.	.	2a
.	1G	[1g	1d	2b
.	.	.	.	2b
=188	=188	=188	=188	=188
1C	1c	1g]	1e	2.cc
.	.	.	.	4b
2.F	1r	1c	2r	4a
.	.	.	.	4g
.	.	.	[2f	[2a
4G	.	.	.	.
=189	=189	=189	=189	=189
2A	2r	0r	2f]	2a]
2B-	1d	.	2d	2g
1A	.	.	2e	[1a
.	2c#	.	2e	.
=190	=190	=190	=190	=190
0D	2d	0r	2.f	1a]
.	2d	.	.	.
.	.	.	4e	.
.	1f	.	4d	1r
.	.	.	4c	.
.	.	.	[2d	.
=191	=191	=191	=191	=191
1A	1e	2r	2d]	1r
.	.	1a	2c#	.
2r	1d	.	[1d	1a
2D	.	2f	.	.
=192	=192	=192	=192	=192
1G	0r	2.g	1d]	1b
.	.	4f	.	.
1A	.	1e	1r	1cc#
=193	=193	=193	=193	=193
1D	2r	2.d	1r	0dd
.	1d	.	.	.
.	.	4e	.	.
1r	.	2f	1d	.
.	2B	[2g	.	.
=194	=194	=194	=194	=194
1r	2.c	4g]	1e	1g
.	.	4f	.	.
.	.	2e	.	.
.	4B	.	.	.
1D	1A	1d	1f#	2a
.	.	.	.	2a
=195	=195	=195	=195	=195
2G	1G	2r	0g	2b
2G	.	2d	.	2b
1C	2r	2e	.	2.cc
.	2G	2e	.	.
.	.	.	.	4b
=196	=196	=196	=196	=196
0r	2A	2e	1c	4cc
.	.	.	.	4dd
.	2A	1a	.	2.ee
.	1B	.	2d	.
.	.	.	.	4dd
.	.	2g	2d	[2dd
=197	=197	=197	=197	=197
1r	0A	1a	2e	2dd]
.	.	.	2e	2cc#
[1D	.	1a	2.f	[1dd
.	.	.	4e	.
=198	=198	=198	=198	=198
2D]	2.d	2r	4f	1dd]
.	.	.	4g	.
2D	.	1d	2.a	.
.	4c	.	.	.
1E	2B	.	.	1r
.	.	.	4g	.
.	4A	2c#	[2g	.
.	4G	.	.	.
=199	=199	=199	=199	=199
1D	1A	1d	2g]	1.dd
.	.	.	2f#	.
1G	1G	1B	[1g	.
.	.	.	.	2dd
=200	=200	=200	=200	=200
2C	1r	1.c	1g]	1ee
2C	.	.	.	.
[1G	2r	.	1r	1dd
.	[2d	4B	.	.
.	.	4A	.	.
=201	=201	=201	=201	=201
1G]	2d]	2.B	1.g	1dd
.	2d	.	.	.
.	.	4A	.	.
1r	1e	2G	.	2b
.	.	[2g	2g	2cc#
=202	=202	=202	=202	=202
1r	2d	2g]	1a	2dd
.	2d	2f#	.	1dd
[1G	[1B	1g	1g	.
.	.	.	.	2dd
=203	=203	=203	=203	=203
2G]	1B]	0r	1g	2ee
2G	.	.	.	2dd
2A	1c	.	2e	1cc
2A	.	.	2f#	.
=204	=204	=204	=204	=204
1.G	2d	2r	2g	1b
.	2B	1d	1g	.
.	2B	.	.	1r
4F	2c	2e	2g	.
4E	.	.	.	.
=205	=205	=205	=205	=205
2F	2A	2c	2a	1r
2E	1c	2c	2g	.
1D	.	1d	1f	1dd
.	2B	.	.	.
=206	=206	=206	=206	=206
1C	2c	2G	1e	2ee
.	2c	2g	.	2ee
1r	2A	2a	1r	2cc
.	2B	2g	.	2b
=207	=207	=207	=207	=207
0r	2c	2g	1r	1a
.	2d	2f#	.	.
.	4e	4g	1g	1g
.	4d	4f	.	.
.	4c	4e	.	.
.	4B	4d	.	.
=208	=208	=208	=208	=208
1F	4A	2c	2a	0r
.	4G	.	.	.
.	4F	2c	2a	.
.	4G	.	.	.
2D	4A	1r	2f	.
.	4B	.	.	.
2E	[2c	.	2e	.
=209	=209	=209	=209	=209
2F	2c]	2r	1d	1r
2G	2B	1g	.	.
1A	1c	.	1c	2r
.	.	2f#	.	[2cc
=210	=210	=210	=210	=210
1G	1d	2g	0r	2cc]
.	.	2g	.	2b
2.C	2r	[1e	.	2cc
.	[2c	.	.	2cc
4D	.	.	.	.
=211	=211	=211	=211	=211
4E	2c]	2e]	1r	1g
4F	.	.	.	.
2G	2B	4d	.	.
.	.	4e	.	.
1F	1c	4f	2r	2.a
.	.	4g	.	.
.	.	[2a	[2f	.
.	.	.	.	4b
=212	=212	=212	=212	=212
1C	1c	2a]	2f]	4cc
.	.	.	.	4dd
.	.	2g	2e	2ee
1r	1F	2.a	2f	2cc
.	.	.	2f	[2dd
.	.	8g	.	.
.	.	8f	.	.
=213	=213	=213	=213	=213
0r	2A	2e	1c	4dd]
.	.	.	.	4cc
.	2A	2f#	.	1cc
.	1G	1g	2.d	.
.	.	.	.	2b
.	.	.	4e	.
=214	=214	=214	=214	=214
2r	1F	[0c	4f	2a
.	.	.	4g	.
1F	.	.	2a	2.cc
.	2.c	.	2f	.
.	.	.	.	4b
2E	.	.	[2g	2g
.	4B	.	.	.
=215	=215	=215	=215	=215
2F	2A	1c]	4g]	1a
.	.	.	4f	.
2F	2F	.	1f	.
1C	2.c	2r	.	1g
.	.	2g	2e	.
.	4B	.	.	.
=216	=216	=216	=216	=216
2.D	2A	2.f	2d	0r
.	2.d	.	2.f	.
4E	.	4g	.	.
2F	.	2a	.	.
.	4c	.	4e	.
2A	[2c	2f	2c	.
=217	=217	=217	=217	=217
1G	2c]	1g	1d	1r
.	2B	.	.	.
2C	[1c	1e	1c	1g
2c	.	.	.	.
=218	=218	=218	=218	=218
2A	1c]	2r	0r	2cc
2A	.	2c	.	2cc
2.G	1r	2g	.	1b
.	.	2g	.	.
4F	.	.	.	.
=219	=219	=219	=219	=219
2D	0r	1f	1r	1a
2F	.	.	.	.
1C	.	2e	1c	1g
.	.	2e	.	.
=220	=220	=220	=220	=220
1r	2r	2d	2f	2a
.	2d	2d	2f	2b
1C	2g	1c	1e	1cc
.	2g	.	.	.
=221	=221	=221	=221	=221
2G	1g	2r	1d	0r
2G	.	2g	.	.
2A	2.e	2cc	1c	.
2A	.	2cc	.	.
.	4f#	.	.	.
=222	=222	=222	=222	=222
1G	1g	2b	2d	2r
.	.	2b	2e	2g
1F	2r	4a	1f	2cc
.	.	4g	.	.
.	2c	4f	.	2cc
.	.	4e	.	.
=223	=223	=223	=223	=223
2.G	2g	2d	0r	2b
.	2g	2d	.	2b
4F	.	.	.	.
2D	2f	2d	.	1a
2F	2f	2c	.	.
=224	=224	=224	=224	=224
1C	2e	1c	2r	1g
.	2e	.	2c	.
1r	2.d	1r	2f	2a
.	.	.	2f	2b
.	4c	.	.	.
=225	=225	=225	=225	=225
1r	4A	2r	2e	1cc
.	4B	.	.	.
.	1c	2g	2e	.
1G	.	2g	1d	1r
.	2B	2g	.	.
=226	=226	=226	=226	=226
2A	2c	1e	1c	1r
2A	2A	.	.	.
1G	2B	1r	2d	1g
.	2B	.	2e	.
=227	=227	=227	=227	=227
1F	0c	2r	1f	2a
.	.	2c	.	2a
2C	.	2e	1r	2g
[2c	.	2e	.	2g
=228	=228	=228	=228	=228
2c]	0r	2d	1r	2a
2B	.	2d	.	2b
1A	.	2e	1c	1cc
.	.	2f#	.	.
=229	=229	=229	=229	=229
1G	2r	1g	2d	2b
.	2G	.	2d	2b
1r	2A	1e	2c	4cc
.	.	.	.	4dd
.	2A	.	2c	4ee
.	.	.	.	4ff
=230	=230	=230	=230	=230
1r	2G	0r	2d	2gg
.	2G	.	2e	1ee
1D	2A	.	1f	.
.	2B	.	.	2dd
=231	=231	=231	=231	=231
1A	1c	2r	2e	1ee
.	.	2A	2e	.
2F	1A	1d	4f	1r
.	.	.	4g	.
2D	.	.	4a	.
.	.	.	4b	.
=232	=232	=232	=232	=232
1A	1r	2c	2cc	1a
.	.	2c	1a	.
1E	2r	1B	.	1b
.	[2e	.	2g	.
=233	=233	=233	=233	=233
1A	2e]	2A	1a	2cc
.	2e	2c	.	2cc
1F	2f	2d	1r	1a
.	2f	[2c	.	.
=234	=234	=234	=234	=234
1G	1d	2c]	1d	0g
.	.	2B	.	.
1C	2c	1c	1e	.
.	2e	.	.	.
=235	=235	=235	=235	=235
1F	2d	1r	2f	1a
.	2c	.	2f	.
1G	1B	1g	1d	1b
=236	=236	=236	=236	=236
2A	1A	2e	0c	0cc
2F	.	1a	.	.
1A	2r	.	.	.
.	2A	2f	.	.
=237	=237	=237	=237	=237
1G	2B	1.g	1d	0b
.	2.G	.	.	.
1E	.	.	1e	.
.	4A	.	.	.
.	4B	2e	.	.
.	4c	.	.	.
=238	=238	=238	=238	=238
1D	4d	1.a	0f	0r
.	4e	.	.	.
.	2.f	.	.	.
2.F	.	.	.	.
.	4e	.	.	.
.	[2d	2a	.	.
4G	.	.	.	.
=239	=239	=239	=239	=239
0A	2d]	0a	0e	0r
.	4c	.	.	.
.	4B	.	.	.
.	1c#	.	.	.
=240	=240	=240	=240	=240
1D	2.d	1f	0r	0a
.	4e	.	.	.
1D	1f#	[1d	.	.
=241	=241	=241	=241	=241
1G	0g	1d]	0r	1b
1E	.	1e	.	1cc#
=242	=242	=242	=242	=242
1D	1r	1f#	0d	1dd
1r	1G	[1g	.	2.b
.	.	.	.	4b
=243	=243	=243	=243	=243
0r	1c	1g]	1e	2cc
.	.	.	.	2cc
.	1A	2.c	1f#	1cc
.	.	4c	.	.
=244	=244	=244	=244	=244
2.G	1G	2d	1g	2b
.	.	2d	.	2b
4G	.	.	.	.
2A	2.c	2c	2.e	2cc
2A	.	2A	.	[2ee
.	4c	.	4e	.
=245	=245	=245	=245	=245
1D	2A	0a	2f	2ee]
.	2A	.	2f	4dd
.	.	.	.	4cc#
1D	[1d	.	1f	1dd
=246	=246	=246	=246	=246
1A	2d]	2a	2e	1ee
.	2c#	2.a	2e	.
1D	2d	.	2f	1r
.	.	4g	.	.
.	2d	2f	[2a	.
=247	=247	=247	=247	=247
0E	2c	0e	2a]	0r
.	4B	.	4g	.
.	4A	.	4f#	.
.	1B	.	1g	.
=248	=248	=248	=248	=248
1A	2A	2r	1a	1r
.	2A	2e	.	.
1r	1d	1f#	1r	1a
=249	=249	=249	=249	=249
1E	2B	2g	0r	2b
.	2e	2g	.	2b
1A	1c	2.e	.	1cc
.	.	4f#	.	.
=250	=250	=250	=250	=250
1G	2d	1g	1r	1b
.	1r	.	.	.
2F	.	2a	1d	2a
[2G	[2d	[2g	.	[2b
=251	=251	=251	=251	=251
2G]	2d]	4g]	2e	2b]
.	.	4f	.	.
2A	2c	2e	2e	4a
.	.	.	.	4g
1D	2.A	1d	1f	2a
.	.	.	.	2a
.	4B	.	.	.
=252	=252	=252	=252	=252
2.E	2c	1G	1e	0g
.	4B	.	.	.
4F	4A	.	.	.
1G	1B	2r	2d	.
.	.	[2g	[2e	.
=253	=253	=253	=253	=253
2.A	2A	2g]	2e]	0r
.	1c	2f#	4d	.
4A	.	.	4c	.
1G	.	2.g	2d	.
.	2B	.	2d	.
.	.	4f	.	.
=254	=254	=254	=254	=254
[0C	2c	1e	0c	0r
.	2.c	.	.	.
.	.	2.c	.	.
.	4d	.	.	.
.	4e	.	.	.
.	4f	4d	.	.
=255	=255	=255	=255	=255
1C]	2g	4e	0r	2.g
.	.	4f	.	.
.	2.G	2.g	.	.
.	.	.	.	4a
1r	.	.	.	4b
.	4A	4f	.	4cc
.	4B	4d	.	[2dd
.	4c	4e	.	.
=256	=256	=256	=256	=256
0r	2.d	2.f	0r	4dd]
.	.	.	.	4cc
.	.	.	.	4a
.	4c	4g	.	4b
.	4A	2a	.	2.cc
.	4B	.	.	.
.	[2c	2e	.	.
.	.	.	.	4dd
=257	=257	=257	=257	=257
2r	4c]	2.g	2.c	4ee
.	4d	.	.	4ff
2.C	4e	.	.	2.gg
.	4f	4f	4d	.
.	2g	2.e	4e	.
4D	.	.	4f	4ff
4E	4G	.	[2g	[2ee
4F	4A	8d	.	.
.	.	8c	.	.
=258	=258	=258	=258	=258
2.G	4B	1B	4g]	4ee]
.	4c	.	4f	4dd
.	1d	.	4d	4b
4F	.	.	4e	4cc
4D	.	2A	2.f	2dd
4E	.	.	.	.
[2F	4c	[2a	.	2a
.	4B	.	4g	.
=259	=259	=259	=259	=259
4F]	2A	4a]	4a	2.cc
4G	.	4g	4b-	.
4A	2a	2f	2.cc	.
4B	.	.	.	4dd
2c	2g	2e	.	2ee
.	.	.	4b-	.
2F	[2f	2f	[2a	[2dd
=260	=260	=260	=260	=260
2.A	4f]	2c	4a]	4dd]
.	4e	.	4g	4cc
.	4c	2.e	4e	2cc
4G	4d	.	4f	.
4E	2e	.	2g	1b
4F	.	4d	.	.
2G	[2d	4B	2d	.
.	.	4c	.	.
=261	=261	=261	=261	=261
2D	4d]	2d	2.f	2.a
.	4c	.	.	.
2.F	2.A	2c	.	.
.	.	.	4g	4b
.	.	2f	2a	4cc
4E	4B	.	.	4dd
2C	2c	2e	[2g	[2ee
=262	=262	=262	=262	=262
1D	1A	2r	4g]	4ee]
.	.	.	4f	4dd
.	.	2.a	2f	1dd
1A	2r	.	1e	.
.	.	4g	.	.
.	[2a	2e	.	2cc#
=263	=263	=263	=263	=263
2.D	4a]	2f	2.d	0dd
.	4g	.	.	.
.	4f	2.a	.	.
4C	4e	.	4e	.
4D	2.d	.	4f	.
4E	.	4g	4g	.
2F	.	4f	[2a	.
.	4c	4e	.	.
=264	=264	=264	=264	=264
1G	2B	0d	4a]	0dd
.	.	.	4g	.
.	4A	.	1g	.
.	4G	.	.	.
1D	1A	.	.	.
.	.	.	2f#	.
=265	=265	=265	=265	=265
[0G	[0G	[0d	[0g	[0b
=266	=266	=266	=266	=266
0G]	0G]	0d]	0g]	0b]
==	==	==	==	==
*-	*-	*-	*-	*-
!!!CDT: 1525/^1526/-1594/2/2
!!!OCY: Italia
!!!AGN: Mass (Canonic)
!!!AST: renaissance, vocal
!!!ASW: Hymn
!!!PWK: Masses, Book I
!!!RNB: Cadence finals: C
!!!YOR: Le Opere Complete, v. 1, p. 125
!!!YOO: Rome, Italy: Fratelli Scalera
!!!END: 1992//
!!!EED: John Miller
!!!YEC: Copyright 2000, John Miller
!!!YEN: United States of America
!!!YEM: Rights to all derivative electronic formats reserved.
!!!YEM: Refer to licensing agreement for further details.
!!!YEM: This file must be accompanied by the licensing agreement.
!!!YEM: A copy of the licensing agreement may be found at http://www.music-cog.ohio-state.edu/HumdrumDatabases/Palestrina/license.txt
!!!EMD: converted to Humdrum by Bret Aarden
